icons/svg/16x16/visibility/filled.svg

<svg xmlns="http://www.w3.org/2000/svg" width="16" height="16" viewBox="0 0 16 16">
  <path fill-rule="evenodd" d="M10.8811,7.209 C10.9511,7.463 11.0001,7.725 11.0001,8 C11.0001,9.657 9.6571,11 8.0001,11 C6.3431,11 5.0001,9.657 5.0001,8 C5.0001,6.343 6.3431,5 8.0001,5 C8.2761,5 8.5371,5.049 8.7911,5.119 C8.6101,5.367 8.5001,5.67 8.5001,6 C8.5001,6.828 9.1721,7.5 10.0001,7.5 C10.3301,7.5 10.6331,7.39 10.8811,7.209 M8.0001,12 C5.7941,12 4.0001,10.206 4.0001,8 C4.0001,5.794 5.7941,4 8.0001,4 C10.2061,4 12.0001,5.794 12.0001,8 C12.0001,10.206 10.2061,12 8.0001,12 M15.8581,7.485 C15.7231,7.262 12.5151,2 8.0001,2 C3.4851,2 0.2771,7.262 0.1431,7.485 C-0.0479,7.802 -0.0479,8.198 0.1431,8.515 C0.2771,8.738 3.4851,14 8.0001,14 C12.5151,14 15.7231,8.738 15.8581,8.515 C16.0481,8.198 16.0481,7.802 15.8581,7.485"/>
</svg>

<svg width="16" height="16" fill="none" xmlns="http://www.w3.org/2000/svg">
  <path fill-rule="evenodd" clip-rule="evenodd" d="M10.881 7.209c.07.254.12.516.12.791a3 3 0 11-3-3c.275 0 .536.049.79.119a1.489 1.489 0 00-.29.881A1.5 1.5 0 0010 7.5c.33 0 .632-.11.88-.291zM8.001 12c-2.207 0-4-1.794-4-4s1.793-4 4-4c2.205 0 4 1.794 4 4s-1.795 4-4 4zm7.857-4.515C15.723 7.262 12.515 2 8 2S.277 7.262.143 7.485a1 1 0 000 1.03C.277 8.738 3.485 14 8 14c4.515 0 7.723-5.262 7.858-5.485a1.012 1.012 0 000-1.03z" fill="#000"/>
</svg>
